pro/src/icons/stroke-offers.svg

<svg width="48" height="48" viewBox="0 0 48 48" fill="none" xmlns="http://www.w3.org/2000/svg">
<path id="icon" fill="currentColor" fill-rule="evenodd" clip-rule="evenodd" d="M23.2515 6C22.0537 6 21.1463 6.92361 21.1463 8V40C21.1463 41.0764 22.0537 42 23.2515 42H41.8918C43.0897 42 43.9971 41.0764 43.9971 40V17.59C43.9971 17.0377 44.4455 16.59 44.9986 16.59C45.5516 16.59 46 17.0377 46 17.59V40C46 42.2436 44.1321 44 41.8918 44H23.2515C21.0113 44 19.1434 42.2436 19.1434 40V8C19.1434 5.75639 21.0113 4 23.2515 4H41.8918C44.1321 4 46 5.75639 46 8V10.59C46 11.1423 45.5516 11.59 44.9986 11.59C44.4455 11.59 43.9971 11.1423 43.9971 10.59V8C43.9971 6.92361 43.0897 6 41.8918 6H23.2515ZM16.7234 7.49931C16.8622 8.03392 16.5407 8.57966 16.0053 8.71825L10.5588 10.1281C9.41688 10.4246 8.78825 11.5373 9.07635 12.5725L17.0194 41.2134C17.167 41.7456 16.8546 42.2966 16.3216 42.444C15.7886 42.5914 15.2368 42.2794 15.0892 41.7471L7.14659 13.108C6.54448 10.9434 7.88341 8.75596 10.055 8.1924L15.5027 6.78224C16.0381 6.64365 16.5846 6.9647 16.7234 7.49931ZM5.04707 23.7438C5.53017 23.4749 5.70351 22.8658 5.43423 22.3834C5.16495 21.901 4.55502 21.7279 4.07192 21.9968C2.10236 23.0931 1.40228 25.5548 2.56116 27.484L2.56171 27.4849L10.6381 40.9832C10.9218 41.4573 11.5367 41.612 12.0115 41.3288C12.4863 41.0455 12.6412 40.4315 12.3575 39.9574L4.28006 26.4574L4.27902 26.4557C3.71962 25.525 4.03449 24.3074 5.04707 23.7438Z"/>
</svg>

<svg xmlns="http://www.w3.org/2000/svg" width="48" height="48" fill="none"><path id="icon" fill="currentColor" fill-rule="evenodd" d="M23.252 6c-1.198 0-2.106.924-2.106 2v32c0 1.076.908 2 2.105 2h18.64c1.199 0 2.106-.924 2.106-2V17.59a1 1 0 0 1 2.003 0V40c0 2.244-1.868 4-4.108 4h-18.64c-2.24 0-4.109-1.756-4.109-4V8c0-2.244 1.868-4 4.108-4h18.64C44.133 4 46 5.756 46 8v2.59a1 1 0 0 1-2.003 0V8c0-1.076-.907-2-2.105-2zm-6.529 1.5a1 1 0 0 1-.718 1.218l-5.446 1.41c-1.142.297-1.77 1.41-1.483 2.444l7.943 28.641a1.002 1.002 0 0 1-1.93.534L7.147 13.108c-.603-2.165.736-4.352 2.908-4.916l5.448-1.41a1 1 0 0 1 1.22.717M5.047 23.743a1 1 0 1 0-.975-1.747c-1.97 1.096-2.67 3.558-1.51 5.487l8.076 13.5c.284.473.899.628 1.374.345a1 1 0 0 0 .345-1.372l-8.077-13.5-.001-.001c-.56-.931-.245-2.149.768-2.712" clip-rule="evenodd"/></svg>
